src/fleming-theme/images/fleming_logo.svg

<?xml version="1.0" encoding="UTF-8"?>
<svg width="278px" height="104px" viewBox="0 0 278 104" version="1.1" xmlns="http://www.w3.org/2000/svg" xmlns:xlink="http://www.w3.org/1999/xlink">
    <!-- Generator: Sketch 51 (57462) - http://www.bohemiancoding.com/sketch -->
    <title>Core / logo</title>
    <desc>Created with Sketch.</desc>
    <defs>
        <polygon id="path-1" points="0 0.724 100.0589 0.724 100.0589 103 0 103"></polygon>
        <polygon id="path-3" points="0 103.276 277.781 103.276 277.781 1 0 1"></polygon>
    </defs>
    <g id="Core-/-logo" stroke="none" stroke-width="1" fill="none" fill-rule="evenodd">
        <g id="Page-1">
            <path d="M28.3479,54.164 C25.9209,51.124 21.4889,50.626 18.4489,53.055 C15.4079,55.481 14.9099,59.913 17.3369,62.954 C19.7639,65.995 24.1979,66.491 27.2379,64.063 C30.2789,61.637 30.7749,57.205 28.3479,54.164 M25.8919,62.379 C23.7829,64.063 20.7079,63.718 19.0219,61.609 C17.3389,59.499 17.6839,56.424 19.7929,54.74 C21.9039,53.055 24.9789,53.4 26.6619,55.509 C28.3459,57.62 28.0019,60.694 25.8919,62.379" id="Fill-1" fill="#007145"></path>
            <path d="M51.2234,16.3144 C47.5914,16.3144 44.6474,19.2574 44.6474,22.8894 C44.6474,26.5214 47.5914,29.4644 51.2234,29.4644 C54.8544,29.4644 57.7984,26.5214 57.7984,22.8894 C57.7984,19.2574 54.8544,16.3144 51.2234,16.3144 M51.2234,27.7784 C48.5234,27.7784 46.3344,25.5894 46.3344,22.8894 C46.3344,20.1894 48.5234,18.0014 51.2234,18.0014 C53.9234,18.0014 56.1114,20.1894 56.1114,22.8894 C56.1114,25.5894 53.9234,27.7784 51.2234,27.7784" id="Fill-3" fill="#41AD4C"></path>
            <path d="M42.9128,69.4033 C38.0468,67.0713 32.2128,69.1273 29.8828,73.9923 C27.5508,78.8563 29.6058,84.6903 34.4708,87.0223 C39.3358,89.3543 45.1698,87.2993 47.5018,82.4323 C49.8318,77.5683 47.7788,71.7353 42.9128,69.4033 M43.0998,80.3243 C41.9328,82.7593 39.0148,83.7863 36.5798,82.6213 C34.1448,81.4553 33.1168,78.5353 34.2838,76.1013 C35.4508,73.6663 38.3698,72.6383 40.8038,73.8033 C43.2378,74.9703 44.2668,77.8903 43.0998,80.3243" id="Fill-5" fill="#41AD4C"></path>
            <path d="M37.6853,22.3007 C31.2653,17.2137 21.9383,18.2927 16.8513,24.7117 C11.7643,31.1307 12.8423,40.4577 19.2623,45.5467 C25.6803,50.6337 35.0073,49.5557 40.0963,43.1357 C45.1843,36.7167 44.1033,27.3887 37.6853,22.3007 M32.3043,36.9587 C30.6273,39.0747 27.5523,39.4307 25.4363,37.7537 C23.3223,36.0777 22.9663,33.0027 24.6433,30.8867 C26.3203,28.7727 29.3933,28.4167 31.5093,30.0937 C33.6243,31.7707 33.9813,34.8437 32.3043,36.9587" id="Fill-7" fill="#009999"></path>
            <path d="M115.1267,87.7519 C115.1237,87.7479 115.1197,87.7449 115.1167,87.7429 L102.9317,75.5569 C106.4817,70.6719 108.4047,64.8139 108.4047,58.6579 C108.4047,50.9629 105.4067,43.7279 99.9637,38.2839 C94.5227,32.8429 87.2867,29.8449 79.5887,29.8449 C71.8937,29.8449 64.6557,32.8429 59.2147,38.2839 C47.9797,49.5199 47.9797,67.7989 59.2147,79.0339 C64.6557,84.4769 71.8937,87.4739 79.5887,87.4739 C85.8327,87.4739 91.7727,85.5009 96.6967,81.8529 L108.8527,94.0079 C108.8557,94.0089 108.8587,94.0129 108.8627,94.0169 C110.5927,95.7459 113.3967,95.7459 115.1267,94.0169 C116.8567,92.2859 116.8567,89.4819 115.1267,87.7519 M62.1147,76.1339 C52.4807,66.4969 52.4807,50.8209 62.1147,41.1849 C66.7827,36.5179 72.9877,33.9469 79.5887,33.9469 C86.1907,33.9469 92.3967,36.5179 97.0637,41.1849 C101.7317,45.8539 104.3027,52.0589 104.3027,58.6579 C104.3027,65.2599 101.7317,71.4649 97.0637,76.1339 C92.3967,80.8009 86.1907,83.3719 79.5887,83.3719 C72.9877,83.3719 66.7827,80.8009 62.1147,76.1339" id="Fill-9" fill="#3C3C3B"></path>
            <g id="Group-13" transform="translate(0.000000, 0.276000)">
                <mask id="mask-2" fill="white">
                    <use xlink:href="#path-1"></use>
                </mask>
                <g id="Clip-12"></g>
                <path d="M83.3479,87.7747 C74.7979,95.4517 63.5039,100.1277 51.1379,100.1277 C24.5249,100.1277 2.8709,78.4747 2.8709,51.8627 C2.8709,25.2477 24.5249,3.5957 51.1379,3.5957 C71.2809,3.5957 88.5769,15.9997 95.8009,33.5687 C97.3079,34.5577 98.7319,35.6947 100.0589,36.9667 C93.6669,16.0117 74.1559,0.7237 51.1379,0.7237 C22.9399,0.7237 -0.0001,23.6647 -0.0001,51.8627 C-0.0001,80.0587 22.9399,103.0007 51.1379,103.0007 C65.9259,103.0007 79.2639,96.6867 88.6099,86.6207 C86.9039,87.1627 85.1459,87.5477 83.3479,87.7747" id="Fill-11" fill="#3C3C3B" mask="url(#mask-2)"></path>
            </g>
            <path d="M102.262,51.1074 C101.469,48.7204 100.304,46.4654 98.784,44.4264 C99.19,46.9384 99.403,49.5134 99.403,52.1374 C99.403,62.4454 96.153,72.0074 90.629,79.8564 C92.76,78.7424 94.734,77.3014 96.484,75.5524 C96.563,75.4734 96.639,75.3884 96.717,75.3084 C100.269,68.3474 102.276,60.4724 102.276,52.1374 C102.276,51.7944 102.269,51.4494 102.262,51.1074" id="Fill-14" fill="#3C3C3B"></path>
            <path d="M73.9597,41.8965 C78.0597,41.8965 81.4457,38.8415 81.9697,34.8835 C81.1837,34.8055 80.3897,34.7665 79.5897,34.7665 C79.3077,34.7665 79.0297,34.7785 78.7497,34.7875 C78.5297,35.8735 77.9437,36.8885 77.0107,37.6335 C74.8997,39.3195 71.8247,38.9735 70.1417,36.8655 C70.1097,36.8255 70.0847,36.7835 70.0547,36.7455 C69.0697,37.1735 68.1117,37.6675 67.1907,38.2285 C68.6337,40.4355 71.1247,41.8965 73.9597,41.8965" id="Fill-16" fill="#2B87C8"></path>
            <path d="M70.3943,30.4804 C70.5533,30.3084 70.7233,30.1444 70.9113,29.9944 C72.3323,28.8604 74.1883,28.6514 75.7653,29.2754 C77.0233,29.1144 78.2993,29.0244 79.5903,29.0244 C79.8893,29.0244 80.1863,29.0374 80.4843,29.0444 C79.0153,27.0374 76.6403,25.7314 73.9603,25.7314 C70.0123,25.7314 66.7263,28.5634 66.0193,32.3054 C67.4263,31.5794 68.8893,30.9684 70.3943,30.4804" id="Fill-18" fill="#2B87C8"></path>
            <path d="M61.1208,52.0625 C61.1208,49.8715 60.4068,47.8485 59.2028,46.2085 C56.4868,50.6555 55.3538,55.8015 55.8088,60.8335 C58.9658,59.1785 61.1208,55.8745 61.1208,52.0625" id="Fill-20" fill="#256B99"></path>
            <path d="M50.0334,56.7978 C47.9104,56.2658 46.3364,54.3508 46.3364,52.0628 C46.3364,49.3638 48.5244,47.1758 51.2224,47.1758 C51.5684,47.1758 51.9054,47.2118 52.2304,47.2788 C52.8784,45.7198 53.6654,44.2058 54.5904,42.7538 C53.5384,42.3728 52.4054,42.1638 51.2224,42.1638 C45.7574,42.1638 41.3254,46.5968 41.3254,52.0628 C41.3254,57.1658 45.1904,61.3668 50.1514,61.9018 C49.9664,60.2068 49.9284,58.4988 50.0334,56.7978" id="Fill-22" fill="#256B99"></path>
            <path d="M69.8376,80.4765 C70.4636,78.8825 70.4546,77.0455 69.6496,75.3805 C68.1196,72.2155 64.3136,70.8895 61.1466,72.4195 C60.8766,72.5505 60.6246,72.7055 60.3806,72.8665 C60.6726,73.2615 60.9826,73.6455 61.3016,74.0255 C61.4576,73.9265 61.6206,73.8335 61.7916,73.7525 C64.2216,72.5775 67.1426,73.5945 68.3176,76.0255 C68.9186,77.2645 68.9436,78.6335 68.5046,79.8315 C68.9416,80.0615 69.3866,80.2745 69.8376,80.4765" id="Fill-24" fill="#009999"></path>
            <path d="M62.3914,82.792 C61.2994,82.433 60.3364,81.693 59.7154,80.644 C59.3494,80.311 58.9884,79.968 58.6334,79.613 C58.2644,79.244 57.9044,78.865 57.5584,78.48 C57.5994,79.304 57.8044,80.134 58.1854,80.924 C59.4424,83.525 62.2394,84.881 64.9534,84.433 C64.0734,83.932 63.2194,83.386 62.3914,82.792" id="Fill-26" fill="#009999"></path>
            <polygon id="Fill-28" fill="#3C3C3B" points="140.3621 13.9716 135.9351 13.9716 135.9351 11.1326 148.0111 11.1326 148.0111 13.9716 143.6091 13.9716 143.6091 26.2756 140.3621 26.2756"></polygon>
            <path d="M157.4333,19.6015 C157.4333,18.0805 156.6383,17.6035 155.3903,17.6035 C154.2783,17.6035 153.3913,18.2395 152.8923,18.8975 L152.8923,26.2755 L150.0113,26.2755 L150.0113,11.1345 L152.8923,11.1345 L152.8923,16.7405 C153.5973,15.9005 154.9593,15.0385 156.7523,15.0385 C159.1583,15.0385 160.3163,16.3545 160.3163,18.4905 L160.3163,26.2755 L157.4333,26.2755 L157.4333,19.6015 Z" id="Fill-30" fill="#3C3C3B"></path>
            <path d="M168.1482,15.0381 C171.4172,15.0381 173.6412,17.4891 173.6412,21.0761 L173.6412,21.7131 L165.4932,21.7131 C165.6742,23.0971 166.7862,24.2551 168.6472,24.2551 C169.6692,24.2551 170.8722,23.8461 171.5752,23.1641 L172.8462,25.0261 C171.7572,26.0251 170.0322,26.5471 168.3292,26.5471 C164.9932,26.5471 162.4732,24.3001 162.4732,20.7821 C162.4732,17.6031 164.8122,15.0381 168.1482,15.0381 M165.4462,19.7611 L170.8502,19.7611 C170.7802,18.7171 170.0542,17.3311 168.1482,17.3311 C166.3552,17.3311 165.5832,18.6701 165.4462,19.7611" id="Fill-32" fill="#3C3C3B"></path>
            <polygon id="Fill-34" fill="#3C3C3B" points="137.9739 33.748 156.6079 33.748 156.6079 38.563 143.5789 38.563 143.5789 44.289 156.3309 44.289 156.3309 49.104 143.5789 49.104 143.5789 60.081 137.9739 60.081"></polygon>
            <mask id="mask-4" fill="white">
                <use xlink:href="#path-3"></use>
            </mask>
            <g id="Clip-37"></g>
            <polygon id="Fill-36" fill="#3C3C3B" mask="url(#mask-4)" points="160.399 60.081 165.414 60.081 165.414 33.748 160.399 33.748"></polygon>
            <path d="M179.3518,40.539 C185.0368,40.539 188.9058,44.803 188.9058,51.04 L188.9058,52.146 L174.7328,52.146 C175.0478,54.554 176.9828,56.567 180.2188,56.567 C181.9968,56.567 184.0898,55.857 185.3128,54.672 L187.5238,57.909 C185.6278,59.646 182.6288,60.554 179.6678,60.554 C173.8638,60.554 169.4808,56.645 169.4808,50.526 C169.4808,45 173.5488,40.539 179.3518,40.539 M174.6528,48.751 L184.0498,48.751 C183.9308,46.935 182.6688,44.526 179.3518,44.526 C176.2328,44.526 174.8898,46.854 174.6528,48.751" id="Fill-38" fill="#3C3C3B" mask="url(#mask-4)"></path>
            <path d="M216.1863,48.04 C216.1863,46.263 215.3963,44.999 213.3443,44.999 C211.5673,44.999 210.1063,46.185 209.3963,47.21 L209.3963,60.081 L204.3423,60.081 L204.3423,48.04 C204.3423,46.263 203.5523,44.999 201.5003,44.999 C199.7633,44.999 198.3023,46.185 197.5523,47.25 L197.5523,60.081 L192.5383,60.081 L192.5383,41.013 L197.5523,41.013 L197.5523,43.499 C198.3423,42.354 200.8673,40.539 203.7893,40.539 C206.5923,40.539 208.3693,41.841 209.0803,44.012 C210.1843,42.275 212.7113,40.539 215.6333,40.539 C219.1473,40.539 221.2383,42.394 221.2383,46.303 L221.2383,60.081 L216.1863,60.081 L216.1863,48.04 Z" id="Fill-39" fill="#3C3C3B" mask="url(#mask-4)"></path>
            <path d="M226.2991,35.5644 C226.2991,33.9064 227.6801,32.5634 229.2991,32.5634 C230.9571,32.5634 232.2991,33.9064 232.2991,35.5644 C232.2991,37.2214 230.9571,38.5654 229.2991,38.5654 C227.6801,38.5654 226.2991,37.2214 226.2991,35.5644 Z M226.8121,60.0794 L231.8271,60.0794 L231.8271,41.0124 L226.8121,41.0124 L226.8121,60.0794 Z" id="Fill-40" fill="#3C3C3B" mask="url(#mask-4)"></path>
            <path d="M249.6707,48.5527 C249.6707,45.9077 248.2897,44.9987 246.1567,44.9987 C244.1827,44.9987 242.6447,46.1057 241.8147,47.2487 L241.8147,60.0807 L236.7997,60.0807 L236.7997,41.0127 L241.8147,41.0127 L241.8147,43.4997 C243.0387,42.0397 245.3667,40.5387 248.4867,40.5387 C252.6707,40.5387 254.6857,42.9067 254.6857,46.6177 L254.6857,60.0807 L249.6707,60.0807 L249.6707,48.5527 Z" id="Fill-41" fill="#3C3C3B" mask="url(#mask-4)"></path>
            <path d="M261.5154,61.3437 C263.0554,63.0417 265.0694,63.7117 267.4764,63.7117 C269.8854,63.7117 272.7264,62.6477 272.7264,58.8967 L272.7264,56.9617 C271.2264,58.8567 269.1744,59.9627 266.8444,59.9627 C262.0684,59.9627 258.4364,56.6067 258.4364,50.2497 C258.4364,44.0137 262.0284,40.5387 266.8444,40.5387 C269.1344,40.5387 271.1884,41.5267 272.7264,43.4597 L272.7264,41.0127 L277.7814,41.0127 L277.7814,58.7777 C277.7814,66.0417 272.1754,67.8197 267.4764,67.8197 C264.1994,67.8197 261.6724,67.0697 259.2654,64.9757 L261.5154,61.3437 Z M272.7264,47.1717 C271.8984,45.9077 270.0814,45.0007 268.4244,45.0007 C265.5804,45.0007 263.6064,46.9747 263.6064,50.2497 C263.6064,53.5277 265.5804,55.5017 268.4244,55.5017 C270.0814,55.5017 271.8984,54.5547 272.7264,53.3297 L272.7264,47.1717 Z" id="Fill-42" fill="#3C3C3B" mask="url(#mask-4)"></path>
            <polygon id="Fill-43" fill="#3C3C3B" mask="url(#mask-4)" points="138.5061 67.1826 157.1401 67.1826 157.1401 71.9976 144.1121 71.9976 144.1121 77.7226 156.8631 77.7226 156.8631 82.5396 144.1121 82.5396 144.1121 93.5156 138.5061 93.5156"></polygon>
            <path d="M173.801,91.1064 C172.498,92.5674 170.209,93.9884 167.089,93.9884 C162.905,93.9884 160.93,91.6994 160.93,87.9884 L160.93,74.4464 L165.945,74.4464 L165.945,86.0144 C165.945,88.6594 167.326,89.5264 169.459,89.5264 C171.393,89.5264 172.932,88.4614 173.801,87.3554 L173.801,74.4464 L178.816,74.4464 L178.816,93.5144 L173.801,93.5144 L173.801,91.1064 Z" id="Fill-44" fill="#3C3C3B" mask="url(#mask-4)"></path>
            <path d="M196.6604,81.9873 C196.6604,79.3413 195.2794,78.4323 193.1464,78.4323 C191.1724,78.4323 189.6344,79.5393 188.8044,80.6833 L188.8044,93.5143 L183.7894,93.5143 L183.7894,74.4473 L188.8044,74.4473 L188.8044,76.9343 C190.0284,75.4733 192.3564,73.9733 195.4764,73.9733 C199.6614,73.9733 201.6734,76.3413 201.6734,80.0523 L201.6734,93.5143 L196.6604,93.5143 L196.6604,81.9873 Z" id="Fill-45" fill="#3C3C3B" mask="url(#mask-4)"></path>
            <path d="M219.7566,91.0674 C218.2566,92.9624 216.1646,93.9884 213.8746,93.9884 C209.0586,93.9884 205.4256,90.3564 205.4256,84.0014 C205.4256,77.7624 209.0186,73.9734 213.8746,73.9734 C216.1256,73.9734 218.2566,74.9604 219.7566,76.8944 L219.7566,67.1814 L224.8096,67.1814 L224.8096,93.5144 L219.7566,93.5144 L219.7566,91.0674 Z M219.7566,80.6054 C218.9266,79.3414 217.1116,78.4324 215.4146,78.4324 C212.5706,78.4324 210.5966,80.6834 210.5966,84.0014 C210.5966,87.2764 212.5706,89.5274 215.4146,89.5274 C217.1116,89.5274 218.9266,88.6194 219.7566,87.3554 L219.7566,80.6054 Z" id="Fill-46" fill="#3C3C3B" mask="url(#mask-4)"></path>
            <path d="M82.4031,46.1006 C75.6101,44.5576 68.8531,48.8136 67.3091,55.6066 C65.7651,62.3996 70.0211,69.1566 76.8141,70.7006 C83.6081,72.2446 90.3641,67.9886 91.9081,61.1946 C93.4521,54.4016 89.1961,47.6446 82.4031,46.1006 M84.3751,59.4836 C83.7771,62.1166 81.1581,63.7656 78.5261,63.1666 C75.8931,62.5696 74.2441,59.9506 74.8421,57.3176 C75.4401,54.6846 78.0591,53.0366 80.6921,53.6336 C83.3241,54.2326 84.9731,56.8506 84.3751,59.4836" id="Fill-47" fill="#31B7BC" mask="url(#mask-4)"></path>
        </g>
    </g>
</svg>

<?xml version="1.0" encoding="UTF-8"?>
<svg width="225px" height="84px" version="1.1" viewBox="0 0 278 104" xmlns="http://www.w3.org/2000/svg" xmlns:xlink="http://www.w3.org/1999/xlink">
 <defs>
  <polygon id="path-1" points="0 0.724 100.06 0.724 100.06 103 0 103"/>
  <polygon id="path-3" points="0 103.28 277.78 103.28 277.78 1 0 1"/>
 </defs>
 <g id="Core-/-logo" fill="none" fill-rule="evenodd">
  <path d="m28.348 54.164c-2.427-3.04-6.859-3.538-9.899-1.109-3.041 2.426-3.539 6.858-1.112 9.899s6.861 3.537 9.901 1.109c3.041-2.426 3.537-6.858 1.11-9.899m-2.456 8.215c-2.109 1.684-5.184 1.339-6.87-0.77-1.683-2.11-1.338-5.185 0.771-6.869 2.111-1.685 5.186-1.34 6.869 0.769 1.684 2.111 1.34 5.185-0.77 6.87" fill="#007145"/>
  <path d="m51.223 16.314c-3.632 0-6.576 2.943-6.576 6.575s2.944 6.575 6.576 6.575c3.631 0 6.575-2.943 6.575-6.575s-2.944-6.575-6.575-6.575m0 11.464c-2.7 0-4.889-2.189-4.889-4.889s2.189-4.888 4.889-4.888 4.888 2.188 4.888 4.888-2.188 4.889-4.888 4.889" fill="#41AD4C"/>
  <path d="m42.913 69.403c-4.866-2.332-10.7-0.276-13.03 4.589-2.332 4.864-0.277 10.698 4.588 13.03s10.699 0.277 13.031-4.59c2.33-4.864 0.277-10.697-4.589-13.029m0.187 10.921c-1.167 2.435-4.085 3.462-6.52 2.297-2.435-1.166-3.463-4.086-2.296-6.52 1.167-2.435 4.086-3.463 6.52-2.298 2.434 1.167 3.463 4.087 2.296 6.521" fill="#41AD4C"/>
  <path d="m37.685 22.301c-6.42-5.087-15.747-4.008-20.834 2.411s-4.009 15.746 2.411 20.835c6.418 5.087 15.745 4.009 20.834-2.411 5.088-6.419 4.007-15.747-2.411-20.835m-5.381 14.658c-1.677 2.116-4.752 2.472-6.868 0.795-2.114-1.676-2.47-4.751-0.793-6.867 1.677-2.114 4.75-2.47 6.866-0.793 2.115 1.677 2.472 4.75 0.795 6.865" fill="#099"/>
  <path d="m115.13 87.752c-3e-3 -4e-3 -7e-3 -7e-3 -0.01-9e-3l-12.185-12.186c3.55-4.885 5.473-10.743 5.473-16.899 0-7.695-2.998-14.93-8.441-20.374-5.441-5.441-12.677-8.439-20.375-8.439-7.695 0-14.933 2.998-20.374 8.439-11.235 11.236-11.235 29.515 0 40.75 5.441 5.443 12.679 8.44 20.374 8.44 6.244 0 12.184-1.973 17.108-5.621l12.156 12.155c3e-3 1e-3 6e-3 5e-3 0.01 9e-3 1.73 1.729 4.534 1.729 6.264 0 1.73-1.731 1.73-4.535 0-6.265m-53.012-11.618c-9.634-9.637-9.634-25.313 0-34.949 4.668-4.667 10.873-7.238 17.474-7.238 6.602 0 12.808 2.571 17.475 7.238 4.668 4.669 7.239 10.874 7.239 17.473 0 6.602-2.571 12.807-7.239 17.476-4.667 4.667-10.873 7.238-17.475 7.238-6.601 0-12.806-2.571-17.474-7.238" fill="#3C3C3B"/>
  <g transform="translate(0 .276)">
   <mask id="mask-2" fill="white">
    <use xlink:href="#path-1"/>
   </mask>
   <path d="m83.348 87.775c-8.55 7.677-19.844 12.353-32.21 12.353-26.613 0-48.267-21.653-48.267-48.265 0-26.615 21.654-48.267 48.267-48.267 20.143 0 37.439 12.404 44.663 29.973 1.507 0.989 2.931 2.126 4.258 3.398-6.392-20.955-25.903-36.243-48.921-36.243-28.198 0-51.138 22.941-51.138 51.139 0 28.196 22.94 51.138 51.138 51.138 14.788 0 28.126-6.314 37.472-16.38-1.706 0.542-3.464 0.927-5.262 1.154" fill="#3C3C3B" mask="url(#mask-2)"/>
  </g>
  <path d="m102.26 51.107c-0.793-2.387-1.958-4.642-3.478-6.681 0.406 2.512 0.619 5.087 0.619 7.711 0 10.308-3.25 19.87-8.774 27.719 2.131-1.114 4.105-2.555 5.855-4.304 0.079-0.079 0.155-0.164 0.233-0.244 3.552-6.961 5.559-14.836 5.559-23.171 0-0.343-7e-3 -0.688-0.014-1.03" fill="#3C3C3B"/>
  <path d="m73.96 41.896c4.1 0 7.486-3.055 8.01-7.013-0.786-0.078-1.58-0.117-2.38-0.117-0.282 0-0.56 0.012-0.84 0.021-0.22 1.086-0.806 2.101-1.739 2.846-2.111 1.686-5.186 1.34-6.869-0.768-0.032-0.04-0.057-0.082-0.087-0.12-0.985 0.428-1.943 0.922-2.864 1.483 1.443 2.207 3.934 3.668 6.769 3.668" fill="#2B87C8"/>
  <path d="m70.394 30.48c0.159-0.172 0.329-0.336 0.517-0.486 1.421-1.134 3.277-1.343 4.854-0.719 1.258-0.161 2.534-0.251 3.825-0.251 0.299 0 0.596 0.013 0.894 0.02-1.469-2.007-3.844-3.313-6.524-3.313-3.948 0-7.234 2.832-7.941 6.574 1.407-0.726 2.87-1.337 4.375-1.825" fill="#2B87C8"/>
  <path d="m61.121 52.062c0-2.191-0.714-4.214-1.918-5.854-2.716 4.447-3.849 9.593-3.394 14.625 3.157-1.655 5.312-4.959 5.312-8.771" fill="#256B99"/>
  <path d="m50.033 56.798c-2.123-0.532-3.697-2.447-3.697-4.735 0-2.699 2.188-4.887 4.886-4.887 0.346 0 0.683 0.036 1.008 0.103 0.648-1.559 1.435-3.073 2.36-4.525-1.052-0.381-2.185-0.59-3.368-0.59-5.465 0-9.897 4.433-9.897 9.899 0 5.103 3.865 9.304 8.826 9.839-0.185-1.695-0.223-3.403-0.118-5.104" fill="#256B99"/>
  <path d="m69.838 80.476c0.626-1.594 0.617-3.431-0.188-5.096-1.53-3.165-5.336-4.491-8.503-2.961-0.27 0.131-0.522 0.286-0.766 0.447 0.292 0.395 0.602 0.779 0.921 1.159 0.156-0.099 0.319-0.192 0.49-0.273 2.43-1.175 5.351-0.158 6.526 2.273 0.601 1.239 0.626 2.608 0.187 3.806 0.437 0.23 0.882 0.443 1.333 0.645" fill="#099"/>
  <path d="m62.391 82.792c-1.092-0.359-2.055-1.099-2.676-2.148-0.366-0.333-0.727-0.676-1.082-1.031-0.369-0.369-0.729-0.748-1.075-1.133 0.041 0.824 0.246 1.654 0.627 2.444 1.257 2.601 4.054 3.957 6.768 3.509-0.88-0.501-1.734-1.047-2.562-1.641" fill="#099"/>
  <g fill="#3C3C3B">
   <polygon points="140.36 13.972 135.94 13.972 135.94 11.133 148.01 11.133 148.01 13.972 143.61 13.972 143.61 26.276 140.36 26.276"/>
   <path d="m157.43 19.602c0-1.521-0.795-1.998-2.043-1.998-1.112 0-1.999 0.636-2.498 1.294v7.378h-2.881v-15.141h2.881v5.606c0.705-0.84 2.067-1.702 3.86-1.702 2.406 0 3.564 1.316 3.564 3.452v7.785h-2.883v-6.674z"/>
   <path d="m168.15 15.038c3.269 0 5.493 2.451 5.493 6.038v0.637h-8.148c0.181 1.384 1.293 2.542 3.154 2.542 1.022 0 2.225-0.409 2.928-1.091l1.271 1.862c-1.089 0.999-2.814 1.521-4.517 1.521-3.336 0-5.856-2.247-5.856-5.765 0-3.179 2.339-5.744 5.675-5.744m-2.702 4.723h5.404c-0.07-1.044-0.796-2.43-2.702-2.43-1.793 0-2.565 1.339-2.702 2.43"/>
   <polygon points="137.97 33.748 156.61 33.748 156.61 38.563 143.58 38.563 143.58 44.289 156.33 44.289 156.33 49.104 143.58 49.104 143.58 60.081 137.97 60.081"/>
  </g>
  <mask id="mask-4" fill="white">
   <use xlink:href="#path-3"/>
  </mask>
  <g fill="#3C3C3B">
   <polygon points="160.4 60.081 165.41 60.081 165.41 33.748 160.4 33.748" mask="url(#mask-4)"/>
   <path d="m179.35 40.539c5.685 0 9.554 4.264 9.554 10.501v1.106h-14.173c0.315 2.408 2.25 4.421 5.486 4.421 1.778 0 3.871-0.71 5.094-1.895l2.211 3.237c-1.896 1.737-4.895 2.645-7.856 2.645-5.804 0-10.187-3.909-10.187-10.028 0-5.526 4.068-9.987 9.871-9.987m-4.699 8.212h9.397c-0.119-1.816-1.381-4.225-4.698-4.225-3.119 0-4.462 2.328-4.699 4.225" mask="url(#mask-4)"/>
   <path d="m216.19 48.04c0-1.777-0.79-3.041-2.842-3.041-1.777 0-3.238 1.186-3.948 2.211v12.871h-5.054v-12.041c0-1.777-0.79-3.041-2.842-3.041-1.737 0-3.198 1.186-3.948 2.251v12.831h-5.014v-19.068h5.014v2.486c0.79-1.145 3.315-2.96 6.237-2.96 2.803 0 4.58 1.302 5.291 3.473 1.104-1.737 3.631-3.473 6.553-3.473 3.514 0 5.605 1.855 5.605 5.764v13.778h-5.052v-12.041z" mask="url(#mask-4)"/>
   <path d="m226.3 35.564c0-1.658 1.381-3.001 3-3.001 1.658 0 3 1.343 3 3.001 0 1.657-1.342 3.001-3 3.001-1.619 0-3-1.344-3-3.001zm0.513 24.515h5.015v-19.067h-5.015v19.067z" mask="url(#mask-4)"/>
   <path d="m249.67 48.553c0-2.645-1.381-3.554-3.514-3.554-1.974 0-3.512 1.107-4.342 2.25v12.832h-5.015v-19.068h5.015v2.487c1.224-1.46 3.552-2.961 6.672-2.961 4.184 0 6.199 2.368 6.199 6.079v13.463h-5.015v-11.528z" mask="url(#mask-4)"/>
   <path d="m261.52 61.344c1.54 1.698 3.554 2.368 5.961 2.368 2.409 0 5.25-1.064 5.25-4.815v-1.935c-1.5 1.895-3.552 3.001-5.882 3.001-4.776 0-8.408-3.356-8.408-9.713 0-6.236 3.592-9.711 8.408-9.711 2.29 0 4.344 0.988 5.882 2.921v-2.447h5.055v17.765c0 7.264-5.606 9.042-10.305 9.042-3.277 0-5.804-0.75-8.211-2.844l2.25-3.632zm11.211-14.172c-0.828-1.264-2.645-2.171-4.302-2.171-2.844 0-4.818 1.974-4.818 5.249 0 3.278 1.974 5.252 4.818 5.252 1.657 0 3.474-0.947 4.302-2.172v-6.158z" mask="url(#mask-4)"/>
   <polygon points="138.51 67.183 157.14 67.183 157.14 71.998 144.11 71.998 144.11 77.723 156.86 77.723 156.86 82.54 144.11 82.54 144.11 93.516 138.51 93.516" mask="url(#mask-4)"/>
   <path d="m173.8 91.106c-1.303 1.461-3.592 2.882-6.712 2.882-4.184 0-6.159-2.289-6.159-6v-13.542h5.015v11.568c0 2.645 1.381 3.512 3.514 3.512 1.934 0 3.473-1.065 4.342-2.171v-12.909h5.015v19.068h-5.015v-2.408z" mask="url(#mask-4)"/>
   <path d="m196.66 81.987c0-2.646-1.381-3.555-3.514-3.555-1.974 0-3.512 1.107-4.342 2.251v12.831h-5.015v-19.067h5.015v2.487c1.224-1.461 3.552-2.961 6.672-2.961 4.185 0 6.197 2.368 6.197 6.079v13.462h-5.013v-11.527z" mask="url(#mask-4)"/>
   <path d="m219.76 91.067c-1.5 1.895-3.592 2.921-5.882 2.921-4.816 0-8.449-3.632-8.449-9.987 0-6.239 3.593-10.028 8.449-10.028 2.251 0 4.382 0.987 5.882 2.921v-9.713h5.053v26.333h-5.053v-2.447zm0-10.462c-0.83-1.264-2.645-2.173-4.342-2.173-2.844 0-4.818 2.251-4.818 5.569 0 3.275 1.974 5.526 4.818 5.526 1.697 0 3.512-0.908 4.342-2.172v-6.75z" mask="url(#mask-4)"/>
  </g>
  <path d="m82.403 46.101c-6.793-1.543-13.55 2.713-15.094 9.506s2.712 13.55 9.505 15.094c6.794 1.544 13.55-2.712 15.094-9.506 1.544-6.793-2.712-13.55-9.505-15.094m1.972 13.383c-0.598 2.633-3.217 4.282-5.849 3.683-2.633-0.597-4.282-3.216-3.684-5.849s3.217-4.281 5.85-3.684c2.632 0.599 4.281 3.217 3.683 5.85" fill="#31B7BC" mask="url(#mask-4)"/>
 </g>
</svg>
